src/assets/loblaw/loblaw-card.svg

<svg width="720" height="500" fill="none" xmlns="http://www.w3.org/2000/svg">
  <path fill="#000" d="M0 0h720v500H0z"/>
  <path fill="#fff" d="M269.533 62.533h374.933v374.933H269.533z"/>
  <path fill-rule="evenodd" clip-rule="evenodd" d="M267 250v190h380V60H267v190zm66.5-49.875v24.542h29.45v11.083H320.2v-60.167h13.3v24.542zm95-13.73v10.812l1.586-1.586c3.012-3.012 7.02-4.514 12.031-4.509 5.082.006 8.418 1.372 11.888 4.867 3.596 3.623 5.477 7.942 6.172 14.172 1.71 15.321-6.086 26.866-18.14 26.866-6.129 0-11.388-2.268-13.586-5.859l-.582-.95-.001 2.771-.001 2.771h-11.4v-60.167H428.5v10.812zm49.717 19.272v30.083h-12.034v-60.167h12.034v30.084zm-82.175-13.513c7.005 2.278 11.867 7.441 13.828 14.684.892 3.297.972 10.555.153 13.87-1.909 7.722-7.506 13.494-15.09 15.561-2.933.799-10.743.805-13.616.009-3.871-1.072-6.582-2.642-9.357-5.419-2.907-2.91-4.517-5.67-5.587-9.581-.964-3.523-.971-10.894-.013-14.39 1.761-6.424 5.584-11.068 11.32-13.75 3.47-1.622 5.925-2.041 11.237-1.916 3.897.091 4.975.233 7.125.932zm116.887-.569c5.227.9 9.123 3.334 10.799 6.747l.88 1.793.181 15.992c.155 13.763.254 16.212.709 17.575.291.87.53 1.69.532 1.82.002.131-2.698.238-5.998.238h-6.002l-.33-1.188c-.181-.652-.33-1.508-.331-1.9-.003-.934-.177-.902-1.527.283-4.824 4.235-15.557 5.388-21.609 2.321-4.557-2.309-7.063-7.272-6.47-12.814.62-5.792 3.906-9.293 10.25-10.922 1.112-.286 4.562-.86 7.666-1.275 6.518-.874 7.711-1.152 9.181-2.143 1.313-.884 1.863-1.91 1.869-3.485.01-2.665-1.683-4.675-4.435-5.265-5.517-1.184-9.92.702-10.839 4.642l-.388 1.663h-11.972l.181-1.761c.1-.969.61-2.675 1.133-3.792 2.1-4.488 6.337-7.371 12.549-8.54 3.114-.586 10.542-.58 13.971.011zm26.737 1.811c.197.74 1.984 7.354 3.971 14.698s3.629 13.472 3.648 13.617c.019.145 1.698-6.434 3.731-14.619l3.698-14.884 5.847-.085 5.847-.086 3.595 14.37c1.978 7.903 3.696 14.532 3.819 14.731.123.199 2.009-6.229 4.191-14.284l3.968-14.646 6.262-.086c4.964-.068 6.232-.002 6.111.317-.083.222-3.193 10.057-6.909 21.857l-6.757 21.454h-12.514l-.312-1.188c-2.868-10.911-7.379-27.801-7.443-27.865-.046-.046-1.625 6.009-3.508 13.456-1.884 7.446-3.553 14.002-3.708 14.568l-.283 1.029h-6.318c-3.475 0-6.319-.075-6.319-.166 0-.091-2.997-9.603-6.661-21.137-3.664-11.535-6.743-21.292-6.843-21.685l-.181-.712h12.711l.357 1.346zm-154 6.896c-5.198 1.309-8.143 6.286-8.145 13.766-.003 8.686 3.953 13.854 10.604 13.854 5.455 0 8.967-3.275 10.152-9.467 1.523-7.962-.97-15.387-5.877-17.498-1.833-.789-4.986-1.095-6.734-.655zm50.051.101c-4.84 1.36-7.667 6.404-7.658 13.665.011 8.544 4.032 13.966 10.285 13.872 4.302-.065 7.428-2.671 9.039-7.538.689-2.08.845-3.158.873-6.017.047-4.955-.994-8.535-3.285-11.301-1.944-2.345-6.129-3.558-9.254-2.681zm75.689 14.945c-.468.255-2.25.685-3.958.956-5.533.878-7.577 1.408-9.063 2.35-1.831 1.161-2.558 2.506-2.572 4.759-.015 2.367.799 3.728 2.834 4.74 2.209 1.098 6.481 1.108 8.953.022a8.304 8.304 0 004.616-5.336c.527-1.878.742-7.991.28-7.966-.131.007-.621.221-1.09.475zm-121.539 35.454v5.541h-12.034V245.25h12.034v5.542zm71.25 0v5.541H449.4V245.25h11.717v5.542zm-107.192-4.169c9.116 2.665 14.784 9.986 16.466 21.269 1.339 8.985.067 18.186-3.521 25.469-1.561 3.17-2.123 3.959-4.514 6.352-3.093 3.095-5.737 4.659-9.761 5.771-2.338.646-3.286.689-17.749.807l-15.279.124v-60.564l16.229.109c14.329.095 16.451.173 18.129.663zm200.292 29.502v30.242H542.5v-60.484h11.717v30.242zm-70.228-20.504l.086 6.254 3.562.09 3.563.089v8.213h-7.283l.002 12.27c.001 7.505.129 12.731.33 13.455.435 1.568 1.167 1.898 4.313 1.944l2.637.039v4.309l.001 4.31-3.78.221c-6.394.374-10.821-.572-12.948-2.766-1.929-1.99-1.955-2.246-1.955-18.781v-15.001h-6.334v-8.211l3.088-.09 3.087-.091.086-6.254.086-6.254h11.373l.086 6.254zm-152.072 20.346V295.6h7.067c7.889 0 9.375-.247 12.033-2.002 5.015-3.31 7.741-11.953 6.875-21.799-.666-7.57-2.71-12.03-6.369-13.896-2.603-1.328-4.485-1.57-12.231-1.57h-7.375v19.634zm87.463-15.166c3.264.683 6.025 2.597 8.401 5.824l.699.95.01-3.087.01-3.088h11.433l-.109 24.304c-.12 26.766-.046 25.722-2.142 30.033-1.761 3.62-5.798 6.518-11.082 7.956-3.029.824-14.152.815-17.1-.013-3.381-.951-6.005-2.401-8.103-4.479-1.988-1.969-3.048-4.039-3.493-6.821l-.202-1.263h12.692l.661 1.366c1.038 2.144 2.604 2.862 6.571 3.013 4.08.157 5.961-.399 7.895-2.334 1.865-1.865 2.389-3.691 2.584-9.01l.156-4.274-1.283 1.624c-1.502 1.899-2.522 2.675-5.033 3.829-1.565.719-2.376.863-5.487.976-6.149.223-9.709-1.083-13.614-4.996-2.566-2.572-4.23-5.448-5.229-9.036-.821-2.945-1.002-11.387-.318-14.767 1.454-7.179 5.118-12.693 10.116-15.222 3.304-1.671 8.184-2.276 11.967-1.485zm103.199.545c5.584 1.477 8.744 3.738 10.159 7.267.714 1.781.729 2.078.897 17.487.12 11.047.28 15.927.545 16.529.206.47.738 1.092 1.181 1.383.555.363.806.812.806 1.441v.914h-6.323c-7.175 0-6.822.136-7.167-2.759-.296-2.485-.301-2.487-2.264-.73-2.133 1.907-6.17 3.993-8.594 4.441-7.623 1.406-14.643-1.733-16.827-7.524-1.435-3.806-1.138-9.018.714-12.508 2.483-4.681 6.853-6.749 16.869-7.983 5.239-.645 7.283-1.23 8.477-2.423.864-.865.929-1.083.797-2.672-.178-2.149-1.016-3.136-3.217-3.79-1.911-.567-5.825-.612-7.581-.085-1.722.516-3.267 2.129-3.804 3.971l-.438 1.503-5.588.087-5.588.086v-1.049c0-4.248 3.152-9.62 6.967-11.873 1.466-.867 4.711-1.94 6.925-2.29 2.981-.473 10.314-.149 13.054.577zm-132.712 22.537v22.484h-12.034V261.4h12.034v22.483zm71.25 0v22.484H449.4V261.4h11.717v22.483zm-44.983-12.886c-4.576 1.29-6.814 4.967-7.169 11.778-.325 6.235 1.659 10.939 5.443 12.905.838.435 2.088.707 3.687.803 2.101.125 2.651.039 4.166-.655.96-.439 2.323-1.394 3.029-2.121 4.025-4.147 4.132-15.28.191-19.884-2.115-2.471-6.211-3.709-9.347-2.826zm104.199 14.374c-.609.268-3.041.891-5.402 1.385-4.798 1.003-5.665 1.28-7.026 2.25-2.328 1.657-2.809 6.064-.906 8.301 1.998 2.349 7.334 2.281 11.118-.142 2.731-1.749 3.8-4.391 3.8-9.392 0-1.617-.107-2.928-.238-2.914-.131.014-.736.245-1.346.512z" fill="#000"/>
  <circle cx="176" cy="374" r="36" fill="#467E1B"/>
  <g clip-path="url(#loblaw-card__clip0)">
    <path d="M176.913 388.776a5.892 5.892 0 01-9.12.448l-10.618-11.784a4.563 4.563 0 116.778-6.108l7.512 8.337a.555.555 0 00.859-.042l15.441-20.944a4.562 4.562 0 117.344 5.415l-18.196 24.678z" fill="#fff"/>
  </g>
  <circle cx="176" cy="250" r="36" fill="#D57F07"/>
  <g clip-path="url(#loblaw-card__clip1)" fill="#fff">
    <path d="M197.069 230.733a1.73 1.73 0 00-1.266-.534 1.73 1.73 0 00-1.265.534l-3.656 3.629a21.792 21.792 0 00-6.891-4.402 21.214 21.214 0 00-7.988-1.561c-5.156 0-9.656 1.561-13.5 4.683-3.844 3.122-6.375 7.195-7.594 12.22v.197c0 .244.089.455.267.633a.865.865 0 00.633.267h5.597c.412 0 .693-.216.843-.647.788-1.875 1.285-2.972 1.491-3.291a14.18 14.18 0 015.231-5.034 14.152 14.152 0 017.032-1.828c3.769 0 7.041 1.284 9.816 3.853l-3.882 3.881a1.734 1.734 0 00-.534 1.266c0 .487.178.909.534 1.266.357.356.779.534 1.266.534h12.6c.488 0 .91-.178 1.266-.534.356-.357.534-.778.534-1.266v-12.6c0-.488-.177-.91-.534-1.266zm-1.07 22.867h-5.4c-.412 0-.693.216-.843.647-.787 1.875-1.284 2.972-1.49 3.29a14.194 14.194 0 01-5.232 5.035 14.149 14.149 0 01-7.031 1.828 14.03 14.03 0 01-5.259-1.012 14.53 14.53 0 01-4.529-2.87l3.854-3.853a1.73 1.73 0 00.534-1.265c0-.488-.178-.91-.534-1.266a1.733 1.733 0 00-1.266-.535h-12.6c-.488 0-.91.179-1.266.535a1.73 1.73 0 00-.534 1.266V268c0 .487.178.91.534 1.266.357.355.778.534 1.266.534.487 0 .909-.179 1.266-.534l3.628-3.629a21.474 21.474 0 006.848 4.416 21.08 21.08 0 007.946 1.547c5.138 0 9.619-1.561 13.444-4.683 3.825-3.122 6.337-7.196 7.538-12.22a.506.506 0 00.027-.197.867.867 0 00-.267-.633.871.871 0 00-.634-.267z"/>
  </g>
  <circle cx="176" cy="126" r="36" fill="#E1251B"/>
  <g clip-path="url(#loblaw-card__clip2)">
    <path d="M190.918 116.304l-9.696 9.697 9.696 9.697a3.693 3.693 0 01-5.221 5.222l-9.698-9.697-9.697 9.697a3.676 3.676 0 01-2.61 1.081 3.693 3.693 0 01-2.611-6.303l9.696-9.697-9.696-9.697a3.693 3.693 0 015.221-5.222l9.697 9.697 9.697-9.697a3.693 3.693 0 015.222 5.222z" fill="#fff"/>
  </g>
  <defs>
    <clipPath id="loblaw-card__clip0">
      <path fill="#fff" transform="translate(156 354)" d="M0 0h40v40H0z"/>
    </clipPath>
    <clipPath id="loblaw-card__clip1">
      <path fill="#fff" transform="translate(154.4 228.4)" d="M0 0h43.2v43.2H0z"/>
    </clipPath>
    <clipPath id="loblaw-card__clip2">
      <path fill="#fff" transform="translate(160 110)" d="M0 0h32v32H0z"/>
    </clipPath>
  </defs>
</svg>

<svg width="720" height="500" viewBox="0 0 720 500" fill="none" xmlns="http://www.w3.org/2000/svg">
<rect width="720" height="500" fill="black"/>
<rect x="269.533" y="62.5333" width="374.933" height="374.933" fill="white"/>
<path fill-rule="evenodd" clip-rule="evenodd" d="M267 250V440H457H647V250V60H457H267V250ZM333.5 200.125V224.667H348.225H362.95V230.208V235.75H341.575H320.2V205.667V175.583H326.85H333.5V200.125ZM428.5 186.395V197.207L430.086 195.621C433.098 192.609 437.106 191.107 442.117 191.112C447.199 191.118 450.535 192.484 454.005 195.979C457.601 199.602 459.482 203.921 460.177 210.151C461.887 225.472 454.091 237.017 442.037 237.017C435.908 237.017 430.649 234.749 428.451 231.158L427.869 230.208L427.868 232.979L427.867 235.75H422.167H416.467V205.667V175.583H422.483H428.5V186.395ZM478.217 205.667V235.75H472.2H466.183V205.667V175.583H472.2H478.217V205.667ZM396.042 192.154C403.047 194.432 407.909 199.595 409.87 206.838C410.762 210.135 410.842 217.393 410.023 220.708C408.114 228.43 402.517 234.202 394.933 236.269C392 237.068 384.19 237.074 381.317 236.278C377.446 235.206 374.735 233.636 371.96 230.859C369.053 227.949 367.443 225.189 366.373 221.278C365.409 217.755 365.402 210.384 366.36 206.888C368.121 200.464 371.944 195.82 377.68 193.138C381.15 191.516 383.605 191.097 388.917 191.222C392.814 191.313 393.892 191.455 396.042 192.154ZM512.929 191.584C518.156 192.485 522.052 194.919 523.728 198.332L524.608 200.125L524.789 216.117C524.944 229.88 525.043 232.329 525.498 233.692C525.789 234.562 526.028 235.382 526.03 235.512C526.032 235.643 523.332 235.75 520.032 235.75H514.03L513.7 234.562C513.519 233.91 513.37 233.054 513.369 232.662C513.366 231.728 513.192 231.76 511.842 232.945C507.018 237.18 496.285 238.333 490.233 235.266C485.676 232.957 483.17 227.994 483.763 222.452C484.383 216.66 487.669 213.159 494.013 211.53C495.125 211.244 498.575 210.67 501.679 210.255C508.197 209.381 509.39 209.103 510.86 208.112C512.173 207.228 512.723 206.202 512.729 204.627C512.739 201.962 511.046 199.952 508.294 199.362C502.777 198.178 498.374 200.064 497.455 204.004L497.067 205.667H491.081H485.095L485.276 203.906C485.376 202.937 485.886 201.231 486.409 200.114C488.509 195.626 492.746 192.743 498.958 191.574C502.072 190.988 509.5 190.994 512.929 191.584ZM539.666 193.396C539.863 194.136 541.65 200.75 543.637 208.094C545.624 215.438 547.266 221.566 547.285 221.711C547.304 221.856 548.983 215.277 551.016 207.092L554.714 192.208L560.561 192.123L566.408 192.037L570.003 206.407C571.981 214.31 573.699 220.939 573.822 221.138C573.945 221.337 575.831 214.909 578.013 206.854L581.981 192.208L588.243 192.122C593.207 192.054 594.475 192.12 594.354 192.439C594.271 192.661 591.161 202.496 587.445 214.296L580.688 235.75H574.431H568.174L567.862 234.562C564.994 223.651 560.483 206.761 560.419 206.697C560.373 206.651 558.794 212.706 556.911 220.153C555.027 227.599 553.358 234.155 553.203 234.721L552.92 235.75H546.602C543.127 235.75 540.283 235.675 540.283 235.584C540.283 235.493 537.286 225.981 533.622 214.447C529.958 202.912 526.879 193.155 526.779 192.762L526.598 192.05H532.953H539.309L539.666 193.396ZM385.666 200.292C380.468 201.601 377.523 206.578 377.521 214.058C377.518 222.744 381.474 227.912 388.125 227.912C393.58 227.912 397.092 224.637 398.277 218.445C399.8 210.483 397.307 203.058 392.4 200.947C390.567 200.158 387.414 199.852 385.666 200.292ZM435.717 200.393C430.877 201.753 428.05 206.797 428.059 214.058C428.07 222.602 432.091 228.024 438.344 227.93C442.646 227.865 445.772 225.259 447.383 220.392C448.072 218.312 448.228 217.234 448.256 214.375C448.303 209.42 447.262 205.84 444.971 203.074C443.027 200.729 438.842 199.516 435.717 200.393ZM511.406 215.338C510.938 215.593 509.156 216.023 507.448 216.294C501.915 217.172 499.871 217.702 498.385 218.644C496.554 219.805 495.827 221.15 495.813 223.403C495.798 225.77 496.612 227.131 498.647 228.143C500.856 229.241 505.128 229.251 507.6 228.165C509.839 227.18 511.549 225.203 512.216 222.829C512.743 220.951 512.958 214.838 512.496 214.863C512.365 214.87 511.875 215.084 511.406 215.338ZM389.867 250.792V256.333H383.85H377.833V250.792V245.25H383.85H389.867V250.792ZM461.117 250.792V256.333H455.258H449.4V250.792V245.25H455.258H461.117V250.792ZM353.925 246.623C363.041 249.288 368.709 256.609 370.391 267.892C371.73 276.877 370.458 286.078 366.87 293.361C365.309 296.531 364.747 297.32 362.356 299.713C359.263 302.808 356.619 304.372 352.595 305.484C350.257 306.13 349.309 306.173 334.846 306.291L319.567 306.415V276.133V245.851L335.796 245.96C350.125 246.055 352.247 246.133 353.925 246.623ZM554.217 276.125V306.367H548.358H542.5V276.125V245.883H548.358H554.217V276.125ZM483.989 255.621L484.075 261.875L487.637 261.965L491.2 262.054V266.16V270.267H487.558H483.917L483.919 282.537C483.92 290.042 484.048 295.268 484.249 295.992C484.684 297.56 485.416 297.89 488.562 297.936L491.199 297.975L491.199 302.284L491.2 306.594L487.42 306.815C481.026 307.189 476.599 306.243 474.472 304.049C472.543 302.059 472.517 301.803 472.517 285.268V270.267H469.35H466.183V266.161V262.056L469.271 261.966L472.358 261.875L472.444 255.621L472.53 249.367H478.217H483.903L483.989 255.621ZM331.917 275.967V295.6H338.984C346.873 295.6 348.359 295.353 351.017 293.598C356.032 290.288 358.758 281.644 357.892 271.799C357.226 264.229 355.182 259.769 351.523 257.903C348.92 256.575 347.038 256.333 339.292 256.333H331.917V275.967ZM419.38 260.801C422.644 261.484 425.405 263.398 427.781 266.625L428.48 267.575L428.49 264.487L428.5 261.4H434.216H439.933L439.824 285.704C439.704 312.47 439.778 311.426 437.682 315.737C435.921 319.357 431.884 322.255 426.6 323.693C423.571 324.517 412.448 324.508 409.5 323.68C406.119 322.729 403.495 321.279 401.397 319.201C399.409 317.232 398.349 315.162 397.904 312.38L397.702 311.117H404.048H410.394L411.055 312.483C412.093 314.627 413.659 315.345 417.626 315.496C421.706 315.653 423.587 315.097 425.521 313.162C427.386 311.297 427.91 309.471 428.105 304.152L428.261 299.878L426.978 301.502C425.476 303.401 424.456 304.177 421.945 305.331C420.38 306.05 419.569 306.194 416.458 306.307C410.309 306.53 406.749 305.224 402.844 301.311C400.278 298.739 398.614 295.863 397.615 292.275C396.794 289.33 396.613 280.888 397.297 277.508C398.751 270.329 402.415 264.815 407.413 262.286C410.717 260.615 415.597 260.01 419.38 260.801ZM522.579 261.346C528.163 262.823 531.323 265.084 532.738 268.613C533.452 270.394 533.467 270.691 533.635 286.1C533.755 297.147 533.915 302.027 534.18 302.629C534.386 303.099 534.918 303.721 535.361 304.012C535.916 304.375 536.167 304.824 536.167 305.453V306.367H529.844C522.669 306.367 523.022 306.503 522.677 303.608C522.381 301.123 522.376 301.121 520.413 302.878C518.28 304.785 514.243 306.871 511.819 307.319C504.196 308.725 497.176 305.586 494.992 299.795C493.557 295.989 493.854 290.777 495.706 287.287C498.189 282.606 502.559 280.538 512.575 279.304C517.814 278.659 519.858 278.074 521.052 276.881C521.916 276.016 521.981 275.798 521.849 274.209C521.671 272.06 520.833 271.073 518.632 270.419C516.721 269.852 512.807 269.807 511.051 270.334C509.329 270.85 507.784 272.463 507.247 274.305L506.809 275.808L501.221 275.895L495.633 275.981V274.932C495.633 270.684 498.785 265.312 502.6 263.059C504.066 262.192 507.311 261.119 509.525 260.769C512.506 260.296 519.839 260.62 522.579 261.346ZM389.867 283.883V306.367H383.85H377.833V283.883V261.4H383.85H389.867V283.883ZM461.117 283.883V306.367H455.258H449.4V283.883V261.4H455.258H461.117V283.883ZM416.134 270.997C411.558 272.287 409.32 275.963 408.965 282.775C408.64 289.01 410.624 293.714 414.408 295.68C415.246 296.115 416.496 296.387 418.095 296.483C420.196 296.608 420.746 296.522 422.261 295.828C423.221 295.389 424.584 294.434 425.29 293.707C429.315 289.56 429.422 278.427 425.481 273.823C423.366 271.352 419.27 270.114 416.134 270.997ZM520.333 285.371C519.724 285.639 517.292 286.262 514.931 286.756C510.133 287.759 509.266 288.036 507.905 289.006C505.577 290.663 505.096 295.07 506.999 297.307C508.997 299.656 514.333 299.588 518.117 297.165C520.848 295.416 521.917 292.774 521.917 287.773C521.917 286.156 521.81 284.845 521.679 284.859C521.548 284.873 520.943 285.104 520.333 285.371Z" fill="black"/>
<circle cx="176" cy="374" r="36" fill="#467E1B"/>
<g clip-path="url(#clip0)">
<path d="M176.913 388.776C175.863 390.201 174.227 391.078 172.459 391.165C170.691 391.253 168.978 390.54 167.793 389.224L157.174 377.44C155.487 375.569 155.637 372.683 157.508 370.996C159.382 369.308 162.265 369.459 163.953 371.332L171.465 379.669C171.577 379.793 171.738 379.859 171.904 379.851C172.071 379.843 172.224 379.76 172.323 379.627L187.765 358.683C189.26 356.655 192.116 356.223 194.146 357.718C196.174 359.214 196.604 362.07 195.109 364.098L176.913 388.776Z" fill="white"/>
</g>
<circle cx="176" cy="250" r="36" fill="#D57F07"/>
<g clip-path="url(#clip1)">
<path d="M197.069 230.733C196.713 230.377 196.291 230.199 195.803 230.199C195.316 230.199 194.894 230.377 194.538 230.733L190.882 234.362C188.875 232.468 186.578 231 183.991 229.96C181.404 228.919 178.741 228.399 176.003 228.399C170.847 228.399 166.347 229.96 162.503 233.082C158.659 236.204 156.128 240.277 154.909 245.302V245.499C154.909 245.743 154.998 245.954 155.176 246.132C155.354 246.31 155.565 246.399 155.809 246.399H161.406C161.818 246.399 162.099 246.183 162.249 245.752C163.037 243.877 163.534 242.78 163.74 242.462C165.052 240.324 166.796 238.646 168.971 237.427C171.147 236.208 173.49 235.599 176.003 235.599C179.772 235.599 183.044 236.883 185.819 239.452L181.937 243.333C181.582 243.689 181.403 244.111 181.403 244.599C181.403 245.086 181.581 245.508 181.937 245.865C182.294 246.221 182.716 246.399 183.203 246.399H195.803C196.291 246.399 196.713 246.221 197.069 245.865C197.425 245.508 197.603 245.087 197.603 244.599V231.999C197.603 231.511 197.426 231.089 197.069 230.733Z" fill="white"/>
<path d="M195.999 253.6H190.599C190.187 253.6 189.906 253.816 189.756 254.247C188.969 256.122 188.472 257.219 188.266 257.538C186.953 259.675 185.209 261.353 183.035 262.572C180.859 263.791 178.515 264.4 176.003 264.4C174.184 264.4 172.431 264.063 170.744 263.388C169.056 262.712 167.547 261.756 166.216 260.518L170.069 256.665C170.425 256.309 170.603 255.887 170.603 255.4C170.603 254.912 170.425 254.49 170.069 254.134C169.713 253.778 169.291 253.599 168.803 253.599H156.203C155.715 253.599 155.293 253.778 154.937 254.134C154.581 254.49 154.403 254.912 154.403 255.4V268C154.403 268.487 154.581 268.91 154.937 269.266C155.294 269.621 155.716 269.8 156.203 269.8C156.691 269.8 157.112 269.621 157.469 269.266L161.097 265.637C163.103 267.549 165.386 269.022 167.946 270.053C170.505 271.084 173.153 271.6 175.891 271.6C181.029 271.6 185.51 270.039 189.335 266.917C193.16 263.795 195.672 259.722 196.873 254.697C196.892 254.659 196.9 254.594 196.9 254.5C196.9 254.256 196.811 254.046 196.633 253.867C196.455 253.69 196.244 253.6 195.999 253.6Z" fill="white"/>
</g>
<circle cx="176" cy="126" r="36" fill="#E1251B"/>
<g clip-path="url(#clip2)">
<path d="M190.918 116.304L181.222 126.001L190.918 135.698C192.36 137.14 192.36 139.477 190.918 140.92C190.197 141.641 189.252 142.001 188.308 142.001C187.362 142.001 186.417 141.641 185.697 140.92L175.999 131.223L166.302 140.92C165.582 141.641 164.637 142.001 163.692 142.001C162.747 142.001 161.803 141.641 161.081 140.92C159.639 139.478 159.639 137.141 161.081 135.697L170.777 126.001L161.081 116.304C159.639 114.862 159.639 112.525 161.081 111.082C162.523 109.641 164.859 109.641 166.302 111.082L175.999 120.779L185.696 111.082C187.139 109.641 189.475 109.641 190.917 111.082C192.36 112.525 192.36 114.862 190.918 116.304Z" fill="white"/>
</g>
<defs>
<clipPath id="clip0">
<rect width="40" height="40" fill="white" transform="translate(156 354)"/>
</clipPath>
<clipPath id="clip1">
<rect width="43.2" height="43.2" fill="white" transform="translate(154.4 228.4)"/>
</clipPath>
<clipPath id="clip2">
<rect width="32" height="32" fill="white" transform="translate(160 110)"/>
</clipPath>
</defs>
</svg>
